!!!!SEGMENT: pl-kk--kk-i-7--105_gorczycki-grzegorz-gerwazy--omni-die-dic-mariae.krn
!!!cenid: 16xx:944
!!!COM: Gorczycki, Grzegorz Gerwazy
!!!COM-rism: pe30009207
!!!CDT: ~1666-1734/04/30
!!!CNT: Polish
!!!OTL: Omni die dic Mariae
!!!PDT:
!!!AGN: Sacred
!!!SMS-siglum: PL-Kk
!!!SMS-shelfmark: Kk.I.7
!!!NIFC-rismID: 300258182
!!!URL-scan: http://repozytorium.nifc.pl/skany/pl-kk-nut--i-7
!!!ONB-nifc: UWAGA: C (skan 0079, s.150-151), A (0157, s.134-135), T(0244, s.150-151), B(0331, s.147). Następny utwór: Stabat Mater
!!!SMS-variant:
!!!SMS-altvar:
**kern	**text	**text	**text	**kern	**text	**text	**text	**text	**kern	**text	**text	**text	**kern	**text	**text	**text
*part4	*part4	*part4	*part4	*part3	*part3	*part3	*part3	*part3	*part2	*part2	*part2	*part2	*part1	*part1	*part1	*part1
*staff4	*staff4	*staff4	*staff4	*staff3	*staff3	*staff3	*staff3	*staff3	*staff2	*staff2	*staff2	*staff2	*staff1	*staff1	*staff1	*staff1
*I"BASSUS.	*	*	*	*I"TENOR.	*	*	*	*	*I"ALTVS.	*	*	*	*I"CANTVS.	*	*	*
*I'B	*	*	*	*I'T	*	*	*	*	*I'A	*	*	*	*I'S	*	*	*
*clefF4	*	*	*	*clefC4	*	*	*	*	*clefC3	*	*	*	*clefC4	*	*	*
*	*	*	*	*	*	*	*	*	*	*	*	*	*Trd0c0	*	*	*
*k[b-]	*	*	*	*k[b-]	*	*	*	*	*k[b-]	*	*	*	*k[b-]	*	*	*
*M3/2	*	*	*	*M3/2	*	*	*	*	*M3/2	*	*	*	*M3/2	*	*	*
=1	=1	=1	=1	=1	=1	=1	=1	=1	=1	=1	=1	=1	=1	=1	=1	=1
!	!	!	!	!	!	!	!	!	!	!	!	!	!LO:SIC:v:t=błędny klucz; transpozycja o oktawę	!	!	!
!LO:TX:a:t=De B.V.M.	!	!	!	!	!	!	!	!	!	!	!	!	!LO:TX:t=P:problem:all2/right:global	!	!	!
1G	Om-	Ip-	Haec	1B-	Om-	Ip-	Haec	.	1d	Om-	Ip-	Haec	1G	Om-	Ip-	Haec
2F\	-ni	-sam	am-	2c\	-ni	-sam	am-	.	2f\	-ni	-sam	am-	2A/	-ni	-sam	am-
=2	=2	=2	=2	=2	=2	=2	=2	=2	=2	=2	=2	=2	=2	=2	=2	=2
1B-	di-	co-	-an-	1d	di-	co-	-an-	.	1f	di-	co-	-an-	1B-	di-	co-	-an-
2B-\	-e	-le	-da	2d\	-e	-le	-da	.	2f\	-e	-le	-da	2B-\	-e	-le	-da
=3	=3	=3	=3	=3	=3	=3	=3	=3	=3	=3	=3	=3	=3	=3	=3	=3
1F	dic	ut	et	1c	dic	ut	et	.	1f	dic	ut	et	1A	dic	ut	et
2G\	Ma-	de	lau-	2B-\	Ma-	de	lau-	.	2d\	Ma-	de	lau-	2G/	Ma-	de	lau-
=4	=4	=4	=4	=4	=4	=4	=4	=4	=4	=4	=4	=4	=4	=4	=4	=4
1D	-ri-	mo-	-dan-	1A	-ri-	mo-	-dan-	.	1d	-ri-	mo-	-dan-	1G	-ri-	mo-	-dan-
2D/	-ae	-le	-da	2A/	-ae	-le	-da	.	2d\	-ae	-le	-da	2F#X/	-ae	-le	-da
=5	=5	=5	=5	=5	=5	=5	=5	=5	=5	=5	=5	=5	=5	=5	=5	=5
1BB-	me-	cri-	cun-	1d	me-	cri-	cun-	.	1f	me-	cri-	cun-	1B-	me-	cri-	cun-
2E-X\	-a	-mi-	-ctis	2B-\	-a	-mi-	-ctis	.	2g\	-a	-mi-	-ctis	2G/	-a	-mi-	-ctis
=6	=6	=6	=6	=6	=6	=6	=6	=6	=6	=6	=6	=6	=6	=6	=6	=6
1C	lau-	-num	spe-	1e-X	lau-	-num	spe-	.	1g	lau-	-num	spe-	1c	lau-	-num	spe-
[2D\	-des	Te	-ci-	[2d\	-des	te	-ci-	.	2d\	-des	te	-ci-	2B-\	-des	te	-ci-
=7	=7	=7	=7	=7	=7	=7	=7	=7	=7	=7	=7	=7	=7	=7	=7	=7
4D\]	.	.	.	2d\]	.	.	.	.	1f	a-	li-	-a-	1B-	a-	li-	-a-
4E-X\	.	.	.	.	.	.	.	.	.	.	.	.	.	.	.	.
2.F\	a-	li-	-a-	2.c\	a-	li-	-a-	.	.	.	.	.	.	.	.	.
.	.	.	.	.	.	.	.	.	2f\	-ni-	-be-	-li-	2A\	-ni-	-be-	-li-
4FF/	-ni-	-be-	-li-	4c\	-ni-	-be-	-li-	.	.	.	.	.	.	.	.	.
=8	=8	=8	=8	=8	=8	=8	=8	=8	=8	=8	=8	=8	=8	=8	=8	=8
!LO:TX:t=P:problem:||	!	!	!	!	!	!	!	!	!	!	!	!	!	!	!	!
1.BB-	-ma	-ret,	-ter	1.B-	-ma,	-ret,	-ter,	.	1.d	-ma.	-ret,	-ter,	1.B-	-ma:	-ret:	-ter
=9	=9	=9	=9	=9	=9	=9	=9	=9	=9	=9	=9	=9	=9	=9	=9	=9
1B-	E-	Hanc	Ve-	1d	E-	Hanc	Ve-	.	1f	E-	Hanc	Ve-	1B-X	E-	Hanc	Ve-
2B-\	-jus	ap-	-ne-	2d\	-jus	ap-	-ne-	.	2f\	-jus	ap-	-ne-	2B-\	-jus	ap-	-ne-
=10	=10	=10	=10	=10	=10	=10	=10	=10	=10	=10	=10	=10	=10	=10	=10	=10
1F	fes-	-pel-	-ra-	1c	fes-	-pel-	-ra-	.	1f	fes-	-pel-	-ra-	1B-	fes-	-pel-	-ra-
2F\	-ta	-la	-vi	2c\	-ta	-la	-vi	.	2f\	-ta	-la	-vi	2A\	-ta	-la	-vi
=11	=11	=11	=11	=11	=11	=11	=11	=11	=11	=11	=11	=11	=11	=11	=11	=11
1G	e-	nè	prae-	1B-	e-	ne	prae-	.	1d	e-	ne	prae-	2A/	e-	ne	prae-
.	.	.	.	.	.	.	.	.	.	.	.	.	1G	-jus	pro-	-di-
2G\	-jus	pro-	-di-	2B-\	-jus	pro-	-di-	.	2g\	-jus	pro-	-di-	.	.	.	.
=12	=12	=12	=12	=12	=12	=12	=12	=12	=12	=12	=12	=12	=12	=12	=12	=12
1D	ges-	-cel-	-ca-	1A	ges-	-cel-	-ca-	.	1g	ges-	-cel-	-ca-	1d	ges-	-cel-	-ca-
!LO:SIC:v:t=custos G	!	!	!	!LO:SIC:v:t=custos B	!	!	!	!	!LO:SIC:v:t=custos g	!	!	!	!LO:SIC:v:t=custos d	!	!	!
2D/	-ta	-la	-vi	2A/	-ta	-la	-vi	.	2f#X\	-ta	-la	-vi	2d\	-ta	-la	-vi
=13	=13	=13	=13	=13	=13	=13	=13	=13	=13	=13	=13	=13	=13	=13	=13	=13
2.G\	co-	Vi-	E-	2.B-\	co-	Vi-	E-	.	2.g\	co-	Vi-	e-	2.d\	co-	Vi-	e-
4G\	-le	-ti-	-am	4c\	-le	-ti-	-am	.	4a\	-le	-ti-	-am	4c\	-le,	-ti-	-am
2G\	de-	-o-	de-	2d\	de-	-o-	de-	.	2b-X\	de-	-o-	de-	2B-X\	de-	-o-	de-
=14	=14	=14	=14	=14	=14	=14	=14	=14	=14	=14	=14	=14	=14	=14	=14	=14
2C/	-vo-	-rum	-cet	(4c\	-vo-	-rum	-cet	.	(4a\	-vo-	-rum	-cet	2e-X\	-vo-	-rum	-cet
.	.	.	.	4B-\)	.	.	.	.	4g\)	.	.	.	.	.	.	.
2.D\	-tiſ-	su-	ju-	2.A/	-tiſ-	su-	ju-	.	2g\	-tiſ-	su-	ju-	2.d\	-tiſ-	su-	ju-
.	.	.	.	.	.	.	.	.	2f#X\	-si-	-pe-	-gi-	.	.	.	.
4D\	-si-	-pe-	-gi-	4A/	-si-	-pe-	-gi-	.	.	.	.	.	4c\	-si-	-pe-	-gi-
=15	=15	=15	=15	=15	=15	=15	=15	=15	=15	=15	=15	=15	=15	=15	=15	=15
1.GG	-ma.	-ret.	-ter.	1.G	-ma.	-ret.	-ter	.	1.g	-ma	-ret:	-ter.	1.Bn	-ma.	-ret.	-ter,
=16||	=16||	=16||	=16||	=16||	=16||	=16||	=16||	=16||	=16||	=16||	=16||	=16||	=16||	=16||	=16||	=16||
*M4/4	*	*	*	*M4/4	*	*	*	*	*M4/4	*	*	*	*M4/4	*	*	*
*met(c)	*	*	*	*met(c)	*	*	*	*	*met(c)	*	*	*	*met(c)	*	*	*
!LO:TX:a:t=Lente	!	!	!	!	!	!	!	!	!	!	!	!	!	!	!	!
4E-X\	Con-	Haec	Ip-	4B-\	Con-	Haec	Ip-	.	4g\	Con-	Haec	Ip-	4G/	Con-	Haec	Ip-
4D\	-tem-	per-	-sa	4B-\	-tem-	per-	-sa	.	4f\	-tem-	per-	-sa	4B-\	-tem-	per-	-sa
4E-\	-pla-	-so-	do-	4B-\	-pla-	-so-	do-	.	4g\	-pla-	-so-	do-	4G/	-pla-	-so-	do-
4BB-/	-re	-na,	-net	4B-\	-re	-na	-net	.	4f\	-re	-na	-net	4B-\	-re	-na	-net
=17	=17	=17	=17	=17	=17	=17	=17	=17	=17	=17	=17	=17	=17	=17	=17	=17
4F\	et	no-	ut	4c\	et	no-	ut	.	4f\	et	no-	ut	4An/	et	no-	ut
4E\	mi-	-bis	quod	4c\	mi-	-bis	quod	.	4c/	mi-	-bis	quod	4G/	mi-	-bis	quod
4F\	-ra-	do-	mo-	4c\	-ra-	do-	mo-	.	4f\	-ra-	do-	mo-	4A/	-ra-	do-	mo-
4C/	-re	-na	-net	4c\	-re	-na	-net	.	4en\	-re	-na	-net	4G/	-re	-na	-net
=18	=18	=18	=18	=18	=18	=18	=18	=18	=18	=18	=18	=18	=18	=18	=18	=18
4G\	e-	con-	Na-	4d\	e-	con-	Na-	.	4d\	e-	con-	Na-	4B-\	e-	con-	Na-
4F#X\	-jus	-tu-	-t(us)	4d\	-jus	-tu-	-tus	.	4f#X\	-jus	-tu-	-t(us)	4A\	-jus	-tu-	-t(us)
4G\	cel-	-lit	e-	4d\	cel-	-lit	e-	.	4d\	cel-	-lit	e-	4B-\	cel-	-lit	e-
4C/	-ſi-	cae-	-jus	4e-X\	-ſi-	cae-	-jus	.	4g\	-ſi-	cae-	-jus	4c\	-ſi-	cae-	-jus
=19	=19	=19	=19	=19	=19	=19	=19	=19	=19	=19	=19	=19	=19	=19	=19	=19
4.D/	-tu-	-leſ-	fa-	4.d\	-tu-	-le-	fa-	.	4.g\	-tu-	-les-	fa-	4.A/	-tu-	-leſ-	fa-
8D/	-di-	-ti-	-ci-	8d\	-di-	-sti-	-ci-	.	8f#X\	-di-	-ti-	-ci-	8A/	-di-	-ti-	-ci-
2GG/	-nem;	-a:	-am:	2d\	-nem,	-a	-am,	.	2g\	-nem,	-a	-am	2G/	-nem,	-a	-am
=20	=20	=20	=20	=20	=20	=20	=20	=20	=20	=20	=20	=20	=20	=20	=20	=20
8C/L	dic	Haec	Ut	4e-X\	dic	Haec	Ut	.	4g\	dic	Haec	ut	4G/	dic	Haec	Ut
8D/J	.	.	.	.	.	.	.	.	.	.	.	.	.	.	.	.
(8E-X\L	fe-	Re-	fi-	4e-\	fe-	Re-	fi-	.	4g\	fe-	Re-	fi-	4c\	fe-	Re-	fi-
8F\J)	.	.	.	.	.	.	.	.	.	.	.	.	.	.	.	.
4G\	-li-	-gi-	-ni-	4d\	-li-	-gi-	-ni-	.	4g\	-li-	-gi-	-ni-	4c\	-li-	-gi-	-ni-
!LO:SIC:v:t=custos E-	!	!	!	!LO:SIC:v:t=custos e-	!	!	!	!	!LO:SIC:v:t=custos g	!	!	!	!LO:SIC:v:t=custos Bn	!	!	!
4G\	-cem	-na	-tâ	4d\	-cem	-na	-tâ	.	4g\	-cem	-na	-tâ	4Bn\	-cem	-na	-ta
=21	=21	=21	=21	=21	=21	=21	=21	=21	=21	=21	=21	=21	=21	=21	=21	=21
(8E-X\L	Ge-	Nos	car-	4e-X\	Ge-	nos	car-	[[li-	4g\	Ge-	nos	Car-	4B-\	Ge-	Nos	Car-
8F\J)	.	.	.	.	.	.	.	.	.	.	.	.	.	.	.	.
(8G\L	-ni-	di-	-nis	4e-\	-ni-	di-	-nis	-cem]]	4g\	-ni-	di-	-nis	4e-X\	-ni-	di-	-nis
8A-X\J)	.	.	.	.	.	.	.	.	.	.	.	.	.	.	.	.
4B-\	-tri-	-vi-	Vi-	4B-\	-tri-	-vi-	Vi-	.	4g\	-tri-	-vi-	Vi-	4e-\	-tri-	-vi-	Vi-
4BB-/	-cem,	-na	-tâ	4B-,\	-cem	-na	-tâ	.	4fn\	-cem	-na	-ta	4d\	-cem	-na	-ta
=22	=22	=22	=22	=22	=22	=22	=22	=22	=22	=22	=22	=22	=22	=22	=22	=22
4G\	dic	il-	lae-	4B-\	dic	il-	lae-	.	4g\	dic	il-	lae-	4e-X\	dic	il-	lae-
4G\	be-	-luſ-	-t(us)	4B-\	be-	-lus-	-tus	.	4g\	be-	-lus-	-tus	4e-\	be-	-luſ-	-tus
4A-X\	-a-	-tra-	hunc	(8c\L	-a-	-tra-	hunc	.	4e-X\	-a-	-tra-	hunc	4c\	-a-	-tra-	hunc
.	.	.	.	8d\J)	.	.	.	.	.	.	.	.	.	.	.	.
4A-\	-tam	-vit	a-	4e-X\	-ta(m)	-vit	a-	.	4a-X\	-tam	-vit	a-	4c\	-tam	-vit	a-
=23	=23	=23	=23	=23	=23	=23	=23	=23	=23	=23	=23	=23	=23	=23	=23	=23
!	!	!	!	!LO:SIC:v:s=4.e-	!	!	!	!	!	!	!	!	!	!	!	!
4.B-\	Vir-	gra-	-ſpi-	4.e\	Vir-	gra-	-ſpi-	.	4.f\	Vir-	gra-	-ſpi-	4.B-\	Vir-	gra-	-ſpi-
8BB-/	-gi-	-ti-	-ci-	8d\	-gi-	-ti-	-ci-	.	8f\	-gi-	-ti-	-ci-	8B-\	-gi-	-ti-	-ci-
!	!	!	!	!LO:SIC:v:s=2e-	!	!	!	!	!	!	!	!	!	!	!	!
2E-X\	-nem,	-a	-am	2e\	-nem	-a	-am	.	2g\	-nem,	-â	-am	2B-\	-nem,	-a	-am
=24	=24	=24	=24	=24	=24	=24	=24	=24	=24	=24	=24	=24	=24	=24	=24	=24
4D/	dic	il-	lae-	4B-X\	dic	il-	lae-	.	4f\	dic	il-	lae-	4d\	dic	il-	lae-
4D/	be-	-lu-	-tus	4f\	be-	-lu-	-tus	.	4f\	be-	-lu-	-tus	4d\	be-	-lu-	-tus
4E-X\	-a-	-stra-	hunc	4e-X\	-a-	-stra-	hunc	.	4g\	-a-	-stra-	hunc	4c\	-a-	-stra-	hunc
4E-\	-tam	-vit	a-	(8e-\L	-tam	-vit	a-	.	(8g\L	-tam	-vit	a-	4B-\	-tam	-vit	a-
.	.	.	.	8d\J)	.	.	.	.	8f\J)	.	.	.	.	.	.	.
=25	=25	=25	=25	=25	=25	=25	=25	=25	=25	=25	=25	=25	=25	=25	=25	=25
4.F\	Vir-	gra-	-ſpi-	4.c\	Vir-	gra-	-ſpi-	.	4.f\	Vir-	gra-	-ſpi-	4B-\	Vir-	gra-	-ſpi-
.	.	.	.	.	.	.	.	.	.	.	.	.	4A\	-gi-	-ti-	-ci-
8FF/	-gi-	-ti-	-ci-	8c\	-gi-	-ti-	-ci-	.	8f\	-gi-	-ti-	-ci-	.	.	.	.
!LO:TX:b:t=Repetat[ur]	!	!	!	!	!	!	!	!	!	!	!	!	!	!	!	!
2BB-/	-nem.	-â.	-am.	2d\	-nem.	-a.	-am.	.	2f\	-nem.	-â.	-am.	2B-\	-nem.	-â.	-am.
==	==	==	==	==	==	==	==	==	==	==	==	==	==	==	==	==
*-	*-	*-	*-	*-	*-	*-	*-	*-	*-	*-	*-	*-	*-	*-	*-	*-
!!!system-decoration: [(s1,s2,s3,s4)]
!!!ENC: Krzysztof Stępień
!!!END: 2021-03-04
